X:133
T:Constitutional Volunteers,The. JJo.133
S:J.Jones MS,1801,N.Shrops.
A:N. Shropshire
Z:Neil Brookes 2006
M:4/4
L:1/8
Q:1/4=140
K:F
“qu”c2|f2f>f fbag|f2f>f f2 c>c|defd bagf|e2g>gg3c|!
f2f>f fbag|f2f>ff2 eg|c’3fe2d2|c2c>cc2:|!
|:c/d/e/f/|g2g>g g2 f/e/d/c/|f2 a>aa2 f>e|defd bagf|efga fedc|!
f2f>f f2 a/f/a/f/|d2g>gg2 b/g/b/g/|ac’c’a bgfe|f2 f>f f2:|
